_src/static/img/sprite/ok.svg

<svg width="13" height="21" viewBox="0 0 13 21" xmlns="http://www.w3.org/2000/svg">
<path d="M4.12891 15.3318C3.14932 14.879 2.20185 14.4604 1.27901 14.0075C1.06101 13.9041 0.87438 13.7446 0.738199 13.5454C0.602018 13.3462 0.521169 13.1144 0.503903 12.8738C0.440739 12.2764 0.655924 11.785 1.15696 11.4563C1.67619 11.1169 2.22754 11.1159 2.75427 11.4413C3.74624 12.0644 4.88436 12.4162 6.05489 12.4616C7.39634 12.5076 8.6243 12.1404 9.78696 11.4659C10.7623 10.8996 11.8072 11.3589 12.0566 12.4155C12.1979 13.0172 11.9281 13.6746 11.2772 14.0129C10.3747 14.4839 9.43153 14.8768 8.45301 15.3275C8.53224 15.4228 8.63929 15.5717 8.76669 15.7001C9.56428 16.5063 10.3726 17.306 11.1648 18.1111C11.8318 18.7887 11.866 19.7394 11.2558 20.3325C10.6627 20.9096 9.73129 20.8582 9.08037 20.2073C8.31597 19.4436 7.55336 18.6785 6.79253 17.9119C6.29792 17.4163 6.29577 17.4163 5.81829 17.8938C5.07959 18.6335 4.31305 19.3465 3.61396 20.1227C2.86455 20.9545 1.79396 20.809 1.30256 20.3272C0.824005 19.8626 0.651644 18.7577 1.48028 18.0104C2.28108 17.2878 3.01443 16.4902 3.77562 15.7226C3.9073 15.5888 4.02827 15.4442 4.12891 15.3318Z" fill="white"/>
<circle cx="6.35037" cy="5.74588" r="3.70423" stroke="white" stroke-width="3.08329"/>
</svg>

<svg width="13" height="21" xmlns="http://www.w3.org/2000/svg"><path d="M4.129 15.332c-.98-.453-1.927-.872-2.85-1.325a1.362 1.362 0 01-.775-1.133c-.063-.598.152-1.089.653-1.418.52-.34 1.07-.34 1.597-.015.992.623 2.13.975 3.3 1.02 1.342.047 2.57-.32 3.733-.995.975-.566 2.02-.107 2.27.95.14.601-.129 1.259-.78 1.597-.902.47-1.845.864-2.824 1.315.08.095.186.244.314.372.797.806 1.606 1.606 2.398 2.411.667.678.701 1.628.09 2.221-.592.578-1.524.526-2.175-.125a765.126 765.126 0 01-2.287-2.295c-.495-.496-.497-.496-.975-.018-.738.74-1.505 1.453-2.204 2.229-.75.831-1.82.686-2.311.204-.479-.464-.651-1.57.177-2.317.801-.722 1.534-1.52 2.296-2.287.131-.134.252-.279.353-.391z" fill="#fff"/><circle cx="6.35" cy="5.746" r="3.704" stroke="#fff" stroke-width="3.083"/></svg>
